localPackages/DesignSystem/Sources/DesignSystem/Resources/Assets.xcassets/IconSet/ic-plus.imageset/ic-plus.svg

<svg width="24" height="24" viewBox="0 0 24 24" fill="none" xmlns="http://www.w3.org/2000/svg">
<g id="ic-plus">
<path id="Icon" fill-rule="evenodd" clip-rule="evenodd" d="M12 1.5C12.4142 1.5 12.75 1.83579 12.75 2.25V11.25L21.75 11.25C22.1642 11.25 22.5 11.5858 22.5 12C22.5 12.4142 22.1642 12.75 21.75 12.75L12.75 12.75V21.75C12.75 22.1642 12.4142 22.5 12 22.5C11.5858 22.5 11.25 22.1642 11.25 21.75V12.75L2.25 12.75C1.83579 12.75 1.5 12.4142 1.5 12C1.5 11.5858 1.83579 11.25 2.25 11.25L11.25 11.25V2.25C11.25 1.83579 11.5858 1.5 12 1.5Z" fill="#0F0F0F"/>
</g>
</svg>

<svg xmlns="http://www.w3.org/2000/svg" width="24" height="24" viewBox="0 0 24 24">
  <g class="ic-plus">
    <path fill-rule="evenodd" d="M12 1.5a.75.75 0 0 1 .75.75v9h9a.75.75 0 0 1 0 1.5h-9v9a.75.75 0 0 1-1.5 0v-9h-9a.75.75 0 0 1 0-1.5h9v-9A.75.75 0 0 1 12 1.5Z" class="Icon"/>
  </g>
</svg>
